X:1
L:1/4
Q:1/4=200
M:6/8
V:1
V:2 clef=bass
K:F
[V:1] [F,A,D]3/4 z z/4 D/E/ | [A,DF]7/4 z/4 G/A/ | [CG]3/4 z/4 [CF]3/4 z/4 [CE]3/4 z/4 | [A,CF]3/4 z/4 [A,CG]3/4 z/4 [A,CA]3/4 z/4 |
[V:2] [D,,D,]3/4 z3/4 [D,,D,]3/4 z3/4 | [D,,D,]3/4 z3/4 [D,,D,]3/4 z3/4 | [C,,C,]3/4 z3/4 [C,,C,]/[C,,C,]/[C,,C,]/ | [F,,F,]3/4 z3/4 [F,,F,]/[F,,F,]/[F,,F,]/ |